public/images/download.svg

<svg xmlns="http://www.w3.org/2000/svg" width="20" height="20"><path fill="#FFF" d="M13.675 9.02a3.745 3.745 0 0 0-7-1A2.997 2.997 0 0 0 4 11c0 1.655 1.345 3 3 3h6.5a2.5 2.5 0 0 0 2.5-2.5c0-1.32-1.025-2.39-2.325-2.48ZM13.5 13H7a2 2 0 0 1-2-2c0-1.025.765-1.88 1.78-1.985l.535-.055.25-.475A2.734 2.734 0 0 1 10 7c1.31 0 2.44.93 2.695 2.215l.15.75.765.055c.78.05 1.39.705 1.39 1.48 0 .825-.675 1.5-1.5 1.5Zm-2.775-4h-1.45v1.5H8l2 2 2-2h-1.275V9Z"/></svg>

<svg xmlns="http://www.w3.org/2000/svg" width="20" height="20" viewBox="0 0 20 20">
  <path fill="#FFF" d="M13.675,9.02 C13.335,7.295 11.82,6 10,6 C8.555,6 7.3,6.82 6.675,8.02 C5.17,8.18 4,9.455 4,11 C4,12.655 5.345,14 7,14 L13.5,14 C14.88,14 16,12.88 16,11.5 C16,10.18 14.975,9.11 13.675,9.02 Z M13.5,13 L7,13 C5.895,13 5,12.105 5,11 C5,9.975 5.765,9.12 6.78,9.015 L7.315,8.96 L7.565,8.485 C8.04,7.57 8.97,7 10,7 C11.31,7 12.44,7.93 12.695,9.215 L12.845,9.965 L13.61,10.02 C14.39,10.07 15,10.725 15,11.5 C15,12.325 14.325,13 13.5,13 Z M10.725,9 L9.275,9 L9.275,10.5 L8,10.5 L10,12.5 L12,10.5 L10.725,10.5 L10.725,9 Z"/>
</svg>
